X:1
T:Grace, Enough for Me
T:Edwin Othello Excell, 1905
T:Grace, Enough for Me
T:Public Domain
T:Public Domain
C:Edwin Othello Excell, 1905
Z:Public Domain
%%score ( 1 2 ) ( 3 4 )
L:1/8
M:3/4
K:Ab
V:1 treble 
V:2 treble 
V:3 bass 
V:4 bass 
V:1
 [CE][CE]>[CA] | [CA]3 [CF] [DA]>[DG] | [DG]4 [DG]2 | [DG]3 [DG] [CA]>[DE] | [CE]3 C C>C | %5
w: 1.~In look- ing|through my tears one|day, I|saw Mount Cal- va-|ry; Be- neath the|
w: 2.~While stand- ing|there, my tremb- ling|heart, Once|full of ag- o-|ny, Could scarce be-|
w: 3.~When I be-|held my ev- ery|sin Nailed|to the cru- el|tree, I felt a|
w: 4.~When I am|safe with- in the|veil, My|por- tion there will|be, To sing through|
 [CG]3 C [CA]>[CG] | [CF]4 [CF]2 | [=DB]3 [DF] [DB]>[DF] | ([B,E]>[B,E] [=DF]>[DF] [DEG]2) || %9
w: a stream Of grace,|nough for|me. * * *||
w: I saw Of grace,|nough for|me. Grace is flow-|ing * * * *|
w: my soul Of grace,|nough for|me. * * *||
w: to come Of grace,|nough for|me. * * *||
"^Refrain" ([CA-]3 A2) A[EA]>[EG][EA] | [EB]2 [Ec] (E2 F [EA]3) | ([Ec-]3 c2) c[Ac]>[GB][Ac] | %12
w: |||
w: Cal- * va- ry, Grace as|om- less as * *|sea, * Grace * for time|
w: |||
w: |||
 [Bd]2 [Ge] (A2 E [Ac]3) | ([Ae-]3 e2) e[ce]>[Bd][Ac] | [FB]2 [Fc](F BA G2 F) | %15
w: |||
w: e- ter- ni- * *|Grace, * e- * nough for||
w: |||
w: |||
 (E2 A [Ac]2) [Gd] [Gc]2 [EB] | [EA]6 |] %17
w: ||
w: ||
w: ||
w: ||
V:2
 x3 | x6 | x6 | x6 | x3 C C>C | x3 C x2 | x6 | x6 | B6 || x3 E3 x3 | x3 A3- x3 | x3 A3 x3 | %12
w: ||||cross there flowed|e-|||||||
w: ||||lieve the sight|e-|||from|fath-|the|and|
w: ||||flood go through|e-|||||||
w: ||||all the years|e-|||||||
 x3 c3- x3 | x3 c3 x3 | x3 d3- d3 | c3- x6 | x6 |] %17
w: |||||
w: ty,|me.||||
w: |||||
w: |||||
V:3
 [A,,A,][A,,A,]>[A,,E,] | [A,,E,]3 [A,,A,] [B,,E,]>[E,B,] | [E,B,]4 [E,B,]2 | %3
 [E,B,]3 [E,B,] [E,A,]>[E,G,] | [A,,A,]3 A, [G,B,]>[F,A,] | [=E,B,]3 [E,B,] [F,A,]>[F,B,] | %6
 [F,A,]4 [F,A,]2 | [B,,A,]3 [B,,A,] [B,,A,]>[B,,A,] | ([E,G,]>[E,G,] [E,A,]>[E,A,] [E,B,]2) || %9
 ([A,,A,]3 [A,C]3) [E,C]>[E,B,][E,C] | [E,D]2 [E,E] ([A,C]2 [A,D] [A,C]3) | %11
 [A,,A,]3 [A,E]3 [E,E]>[E,E][E,E] | [E,E]2 [E,E] ([A,E]2 [A,C] [A,E]3) | %13
 [A,C]3 [A,E]3 [A,E]>[A,E][A,E] | [D,D]2 [C,=A,]([B,,B,] [B,,B,][B,,B,] [E,B,]2 [E,G,]) | %15
 ([E,A,]2 [E,E] [E,E]2) [E,F] [E,E]2 [E,D] | [A,,A,C]6 |] %17
V:4
 x3 | x6 | x6 | x6 | x3 A, x2 | x6 | x6 | x6 | x6 || x9 | x9 | x9 | x9 | x9 | x9 | x9 | x6 |] %17

